X: 36
T:Rose Garden (#236), The
M:4/4
L:1/8
S:Rice-Walsh manuscript
R:Reel
K:G
EFGA BE E2|GBAG FDEF|GFEF GABc|1dfe^c dBAF:|2dBAF GE E2||
e2 ee (3efg fe|fedc defg|afgf efga|bgaf ge e2|
efga bgaf|(3efg fe defg|(3fgf (#efe dfe^c|dBAF GE E2||

